assets/Safety pin/Flat/safety_pin_flat.svg

<svg width="32" height="32" viewBox="0 0 32 32" fill="none" xmlns="http://www.w3.org/2000/svg">
<path d="M11.5628 28C10.8804 27.3663 10.8804 26.3449 11.5628 25.7112L22.051 15.4753C22.7334 14.8416 23.8334 14.8416 24.5159 15.4753C25.1983 16.1089 25.1983 17.1304 24.5159 17.7641L14.0277 28C13.3555 28.6337 12.2452 28.6337 11.5628 28Z" fill="#CDC4D6"/>
<path d="M14.0952 17.7396C13.1283 16.7572 11.9464 16.1221 10.706 15.8244L16.537 9.90012C17.1914 9.23525 17.1914 8.16352 16.537 7.49865C15.8826 6.83378 14.8278 6.83378 14.1734 7.49865L4.0936 17.7396C1.33924 20.538 1.33924 25.1028 4.0936 27.9012C6.84795 30.6996 11.3409 30.6996 14.0952 27.9012C16.8496 25.1028 16.8496 20.538 14.0952 17.7396ZM6.45726 25.4997C5.00195 24.0211 5.00195 21.6197 6.45726 20.1411C7.91258 18.6625 10.2762 18.6625 11.7316 20.1411C13.1869 21.6197 13.1869 24.0211 11.7316 25.4997C10.2762 26.9783 7.91258 26.9783 6.45726 25.4997Z" fill="#D3D3D3"/>
<path d="M14.0952 17.7396C13.1283 16.7572 11.9464 16.1221 10.706 15.8244L16.537 9.90012C17.1914 9.23525 17.1914 8.16352 16.537 7.49865C15.8826 6.83378 14.8278 6.83378 14.1734 7.49865L4.0936 17.7396C1.33924 20.538 1.33924 25.1028 4.0936 27.9012C6.84795 30.6996 11.3409 30.6996 14.0952 27.9012C16.8496 25.1028 16.8496 20.538 14.0952 17.7396ZM6.45726 25.4997C5.00195 24.0211 5.00195 21.6197 6.45726 20.1411C7.91258 18.6625 10.2762 18.6625 11.7316 20.1411C13.1869 21.6197 13.1869 24.0211 11.7316 25.4997C10.2762 26.9783 7.91258 26.9783 6.45726 25.4997Z" fill="#CDC4D6"/>
<path d="M17.6501 19.7703C18.1255 21.1454 18.2691 22.6133 18.0807 24.0445L14.0278 27.9999C13.9615 28.0624 13.8911 28.1186 13.8171 28.1688C13.9116 28.0826 14.0043 27.9934 14.0951 27.9011C15.8372 26.1312 16.4775 23.6546 16.0158 21.3652L17.6501 19.7703Z" fill="#B4ACBC"/>
<path d="M27.791 4.21099C27.7715 4.19143 27.752 4.17187 27.7422 4.16209C26.2974 2.73428 24.3644 1.97148 22.3241 2.00082C20.2935 2.03015 18.3703 2.84185 16.9352 4.27944L13.1962 8.02498C12.9717 8.24991 12.9717 8.62153 13.1962 8.85624L14.231 9.89286C15.1975 10.861 16.7595 10.861 17.726 9.89286L20.1568 7.45777C21.3966 6.21577 23.3882 6.19622 24.6085 7.39909L24.6182 7.40887C25.2625 8.05431 25.5847 8.94424 25.5261 9.85374C25.5164 10.0395 25.3797 10.108 25.3211 10.1276C25.2626 10.1471 25.1064 10.1862 24.9794 10.0493C23.5444 8.61174 21.2209 8.61174 19.7858 10.0493L19.698 10.1373C18.2629 11.5749 18.2629 13.9024 19.698 15.34L20.8207 16.4647L23.1148 18.7628L23.1832 18.8313C23.4077 19.0562 23.7787 19.0562 24.013 18.8313L27.8203 15.0173C30.7685 12.0443 30.7685 7.19373 27.791 4.21099Z" fill="#B4ACBC"/>
</svg>

<svg xmlns="http://www.w3.org/2000/svg" width="32" height="32" fill="none"><path fill="#CDC4D6" d="M11.563 28a1.535 1.535 0 0 1 0-2.289L22.05 15.475a1.836 1.836 0 0 1 2.465 0 1.535 1.535 0 0 1 0 2.29L14.028 28c-.673.634-1.783.634-2.465 0Z"/><path fill="#D3D3D3" d="M14.095 17.74a7.048 7.048 0 0 0-3.389-1.916L16.537 9.9a1.714 1.714 0 0 0 0-2.401 1.65 1.65 0 0 0-2.364 0l-10.08 10.24c-2.754 2.799-2.754 7.364 0 10.162a7.007 7.007 0 0 0 10.002 0c2.755-2.798 2.755-7.363 0-10.161ZM6.457 25.5a3.834 3.834 0 0 1 0-5.359 3.69 3.69 0 0 1 5.275 0 3.834 3.834 0 0 1 0 5.359 3.69 3.69 0 0 1-5.275 0Z"/><path fill="#CDC4D6" d="M14.095 17.74a7.048 7.048 0 0 0-3.389-1.916L16.537 9.9a1.714 1.714 0 0 0 0-2.401 1.65 1.65 0 0 0-2.364 0l-10.08 10.24c-2.754 2.799-2.754 7.364 0 10.162a7.007 7.007 0 0 0 10.002 0c2.755-2.798 2.755-7.363 0-10.161ZM6.457 25.5a3.834 3.834 0 0 1 0-5.359 3.69 3.69 0 0 1 5.275 0 3.834 3.834 0 0 1 0 5.359 3.69 3.69 0 0 1-5.275 0Z"/><path fill="#B4ACBC" d="M17.65 19.77a9.36 9.36 0 0 1 .43 4.274L14.029 28a1.69 1.69 0 0 1-.21.169c.094-.086.186-.176.277-.268 1.742-1.77 2.382-4.246 1.92-6.536l1.635-1.595ZM27.791 4.211l-.049-.049a7.5 7.5 0 0 0-5.418-2.161 7.75 7.75 0 0 0-5.389 2.278l-3.739 3.746a.597.597 0 0 0 0 .831l1.035 1.037a2.466 2.466 0 0 0 3.495 0l2.43-2.435c1.24-1.242 3.232-1.262 4.453-.059l.01.01a3.16 3.16 0 0 1 .907 2.445.295.295 0 0 1-.205.274.313.313 0 0 1-.342-.079 3.666 3.666 0 0 0-5.193 0l-.088.088a3.682 3.682 0 0 0 0 5.203l1.123 1.125 2.294 2.298.068.068a.595.595 0 0 0 .83 0l3.807-3.814c2.948-2.973 2.948-7.823-.029-10.806Z"/></svg>
